next/src/assets/icons/kniha.svg

<svg width="24" height="24" viewBox="0 0 24 24" fill="none" xmlns="http://www.w3.org/2000/svg">
<path fill-rule="evenodd" clip-rule="evenodd" d="M17.11 2.25C19.31 2.25 21.38 2.74 22.63 3.56C22.8362 3.69744 22.96 3.92883 22.96 4.17661V17.54C22.96 17.87 22.79 18.18 22.5 18.35C22.22 18.51 21.86 18.51 21.57 18.35C20.53 17.78 18.85 17.43 17.1 17.43C15.54 17.43 14.04 17.71 12.99 18.18C12.36 18.47 11.63 18.47 10.99 18.18C9.93 17.7 8.44 17.43 6.88 17.43C5.13 17.43 3.45 17.78 2.41 18.36C2.27 18.44 2.12 18.48 1.96 18.48C1.8 18.48 1.64 18.43 1.49 18.35C1.21 18.18 1.03 17.87 1.03 17.54V4.18497C1.03 3.93246 1.158 3.69717 1.37 3.56C2.62 2.74 4.69 2.25 6.89 2.25C8.87 2.25 10.73 2.65 12 3.32C13.27 2.64 15.13 2.25 17.11 2.25ZM2.53 16.66C3.74 16.19 5.27 15.93 6.89 15.93V15.92C8.52 15.92 10.04 16.19 11.25 16.66V4.61C10.21 4.07 8.59 3.74 6.89 3.74C5.19 3.74 3.57 4.07 2.53 4.61V16.66ZM17.11 15.93C18.73 15.93 20.27 16.19 21.47 16.66V4.62C20.43 4.08 18.81 3.75 17.11 3.75C15.41 3.75 13.79 4.08 12.75 4.62V16.67C13.96 16.2 15.49 15.93 17.11 15.93Z" fill="currentColor"/>
<path fill-rule="evenodd" clip-rule="evenodd" d="M13.55 19.56L13.41 19.62L13.31 19.73C13.13 19.93 12.89 20.1 12 20.1C11.11 20.1 10.87 19.92 10.69 19.73L10.59 19.62L10.45 19.56C7.05074 18.0613 3.09068 19.5419 1.76851 20.128C1.51677 20.2396 1.42254 20.5376 1.54935 20.7821L1.78189 21.2303C1.90822 21.4738 2.20687 21.5729 2.45909 21.4651C3.65053 20.9556 6.9874 19.7515 9.72 20.88C10.26 21.39 10.94 21.6 12 21.6C13.06 21.6 13.74 21.39 14.28 20.88C16.9218 19.7858 20.344 20.9768 21.5478 21.4682C21.7971 21.57 22.0889 21.4709 22.2136 21.2322L22.4486 20.7827C22.5764 20.5382 22.4824 20.2392 22.2301 20.1274C20.9066 19.5409 16.9481 18.0618 13.55 19.56Z" fill="currentColor"/>
</svg>

<svg xmlns="http://www.w3.org/2000/svg" width="24" height="24" fill="none" viewBox="0 0 24 24">
  <path fill="currentColor" fill-rule="evenodd" d="M17.11 2.25c2.2 0 4.27.49 5.52 1.31h-.01l.34.22v13.76c0 .33-.17.64-.46.81a.96.96 0 0 1-.93 0c-1.04-.57-2.72-.92-4.47-.92-1.56 0-3.06.28-4.11.75-.63.29-1.36.29-2 0-1.06-.48-2.55-.75-4.11-.75-1.75 0-3.43.35-4.47.93-.14.08-.29.12-.45.12-.16 0-.32-.05-.47-.13a.957.957 0 0 1-.46-.81V3.78l.34-.22c1.25-.82 3.32-1.31 5.52-1.31 1.98 0 3.84.4 5.11 1.07 1.27-.68 3.13-1.07 5.11-1.07ZM2.53 16.66c1.21-.47 2.74-.73 4.36-.73v-.01c1.63 0 3.15.27 4.36.74V4.61c-1.04-.54-2.66-.87-4.36-.87-1.7 0-3.32.33-4.36.87v12.05Zm14.58-.73c1.62 0 3.16.26 4.36.73V4.62c-1.04-.54-2.66-.87-4.36-.87-1.7 0-3.32.33-4.36.87v12.05c1.21-.47 2.74-.74 4.36-.74Zm-3.7 3.69.14-.06c4.06-1.79 8.92.67 9.13.78l-.69 1.33-.02-.01c-.331-.159-4.43-2.13-7.69-.78-.54.51-1.22.72-2.28.72-1.06 0-1.74-.21-2.28-.72-3.39-1.4-7.71.79-7.71.79l-.69-1.33c.21-.11 5.07-2.57 9.13-.78l.14.06.1.11c.18.19.42.37 1.31.37.89 0 1.13-.17 1.31-.37l.1-.11Z" clip-rule="evenodd"/>
</svg>
